X:1
T:From the Land of Sky-blue Water
T:From the Land of Sky-blue Water
T:Charles Wakefield Cadman Opus 45, No. 1      
T:Poem by Nelle Richmond Eberhart
T:by IMSLP - Pubblico dominio
T:by IMSLP - Pubblico dominio
T:by IMSLP - Pubblico dominio
T:by IMSLP - Pubblico dominio
T:by IMSLP - Pubblico dominio
T:by IMSLP - Pubblico dominio
C:Charles Wakefield Cadman
Z:Nelle Richmond Eberhart
Z:by IMSLP - Pubblico dominio
%%score 1 { ( 2 4 ) | ( 3 5 ) }
L:1/8
Q:1/4=50
M:3/4
K:Ab
V:1 treble nm="Voice"
V:2 treble nm="Piano"
V:4 treble 
V:3 bass 
V:5 bass 
V:1
 z6 | z6 | z6 | z2 z2"^con moto" B B | e4 c c | (e<(c) c2) B2 | B/ A3/2- A4- | A4 c2 | B4 c2 | %9
w: |||From the|Land of the|Sky- * * blue|Wa\- ter, _|_ They|brought a|
 (A<F-) F2 A2 | (F<E-) E4- | E4 B c |"^broadly" !tenuto!e4 c c | !tenuto!e<c- c2 B2 | %14
w: cap- * * tive|maid; _ _|_ And her|eyes they are|lit _ _ with|
 !>!B/ A3/2- A4- | A4!<(! (AB)!<)! |"^maestoso" !tenuto!c4 c2 | (!tenuto!B<A-) A2 B2 | %18
w: light\- nings _|_ Her *|hearth is|not _ _ a|
 !tenuto!c6- | c4 z2 | z6 | z6 | z6 | z2 z2"^mezza voce"!pp! B B |[Q:1/4=40]"^lento" e4 c c | %25
w: fraid!|_||||But I|steal to her|
[Q:1/4=50]"^a tempo" (e<(c) c2) B2 | B/ A3/2- A4- | A4 E2 | d4 B2 | (d<c-) c2 B2 | (c<e-) e4- | %31
w: lodge _ _ at|dawn\- ing, _|_ I|woo her|With _ _ my|flute; _ _|
 e4"^plaintively" c c | e4 c e | c4 B2 | B/ A3/2- A4- | !fermata!A4 ((AB) | (cd) e4 | %37
w: _ She is|sick for the|Sky- blue|Wa\- ter, _|_ The *|cap- * tive|
 (c<A-) !breath!!fermata!A2){/!fermata!c} !fermata!B2 | A6- | A6- | A6- | A4 z2 | z6 | z6 |] %44
w: maid _ _ is|mute|_|||||
V:2
!pp! _g'/_c'/g'/c'/ g'/c'/g'/c'/ g'/c'/g'/c'/ | _g'/_c'/g'/c'/ g'/c'/g'/c'/ g'/c'/g'/c'/ | %2
w: ||
 __b/c'/b/a/ z2 [=ae']2 |!ff! (=A2 B2) z2 |!mf! [DE]<[DE]- [DE]2 [DE]2 | [DE]<[DE]- [DE]2 [DE]2 | %6
w: ||||
 [CE]<[CE]- [CE]2 [CE]2 | [CE]<[CE]- [CE]2 [CE]2 | [DF]<[DF]- [DF]2 [DF]2 | %9
w: |||
 [DF]<[DF]- [DF]2 [DF]2 | [CE]<[CE]- [CE]2 [CE]2 | [CE]<[CE]- [CE]2 [CE]2 | %12
w: |||
!f! [DE]<[DE]- [DE]2 [DE]2 |!f! [DE]<[DE]- [DE]2 [DE]2 | [CE]<[CE]- [CE]2 [CE]2 | %15
w: |||
!<(! [CE]<[CE]- [CE]2 [CE]2!<)! |!ff! =E<[G,C]- [G,C]2 E2 |!ff! =D<[G,C]- [G,C]2 D2 | %18
w: |||
 =E<[G,C]- [G,C]2 [G,CE]2 |"_dim." =E<G- G2 =A2 | G<B- B2 G2 | ^G<^c- c2 G2 | ^G<=d- d2 G2 | %23
w: ||in- * * *|u- * * *|en- * * \-|
 =G<_e- e4 |!pp! [Ede]<[Fde]- [Fde]2 [Gde]2 | [Ede]<[Fde]- [Fde]2 [Gde]2 | %26
w: |||
 [Ece]<[Fce]- [Fce]2 [Gce]2 | [Ace]<[Fce]- [Fce]2 [Ace]2 | [Ede]<[Fde]- [Fde]2 [Gde]2 | %29
w: |||
 [Ede]<[Fde]- [Fde]2 [Gde]2 | [Ace]<[Fce]- [Fce]2 [Gce]2 | [Ace]<[Fce]- [Fce]2 [Ace]2 | e4 e2 | %33
w: ||||
 =e4 !arpeggio!b2 | [dfc']4 [da]2 | [d_f]4 z2 | [Ae]4 z2 | !breath![Ada]4 z2 | [Aca]6 | %39
w: ||||||
 [cea]4 [eae']2 | _f'/c'/f'/c'/ f'/c'/f'/c'/!>(! f'/c'/f'/c'/ | [ee']4 [=ce=c']2!>)! | %42
w: |||
!ppp! z2 !tenuto![Aca]4- | [Aca]6 |] %44
w: ||
V:3
"^Moderately, but inereasing in time and tone to end of Introduction" z6 | z6 | %2
 z2 z2[K:treble] [EGd]2 |[K:bass] [E,G,D]4 z2 | E,<F,- F,2 G,2 | E,<F,- F,2 G,2 | E,<F,- F,2 G,2 | %7
 A,<F,- F,2 A,2 | A,<B,- B,2 C2 | A,<F,- F,2 A,2 | F,<E,- E,2 A,2 | F,<E,- E,2 A,2 | %12
 E,<F,- F,2 G,2 | E,<F,- F,2 G,2 | E,<F,- F,2 G,2 | A,<F,- F,2 E,2 | [C,,C,]6- | [C,,C,]4 z2 | %18
 [C,,C,]4 z2 | .=B,2 =A,4 | .C2 !tenuto!C4 | .=B,2 B,4 | ._B,2 !tenuto!B,4 | [_E,_D]2 [E,D]4 | %24
!ped! B,,2"^lento" [G,D]4 |"^a tempo" E,,2!ped-up! [G,D]4 | A,,2 [E,C]4 | E,,2 [E,C]4 | %28
 B,,2 [G,D]4 | E,,2 [G,D]4 | A,,2 [E,C]4 | E,,2 [E,C]4 | [A,C]6 | [A,C]4 [A,_G]2 | %34
[K:treble] [DF]4 [D_F]2 | [B,A]4 [A,B,_F]2 |[K:bass] [E,CE]4 [E,CE]2 | !breath![E,B,F]4 [E,B,E]2 | %38
 A,,2 [E,C]4 | [A,G]4[K:treble] [CEA]2 | [_C=DA]4 [CDA]2 | [=CEA]4 [A,EFA]2 |[K:bass] z2 [E,CE]4- | %43
 [E,CE]6 |] %44
V:4
 x6 | x6 | x2 !>!e4 | [Ee]4 x2 | x6 | x6 | x6 | x6 | x6 | x6 | x6 | x6 | x6 | x6 | x6 | x6 | x6 | %17
 x6 | x6 | C4 [C_E]2 | =E4 E2 | =E4 E2 | =E4 E2 | _E2 [EG]4 | x6 | x6 | x6 | x6 | x6 | x6 | x6 | %31
 x6 | [_GB][Ac] [GB]2 [GB]2 | [_GB][Ac] [GB]2 [c=e]2 | x6 | x6 | x6 | x6 | x6 | x6 | _f4 f2 | x6 | %42
 x6 | x6 |] %44
V:5
 x6 | x6 | x4[K:treble] x2 |[K:bass] x6 | [E,,B,,]6- | [E,,B,,]4 z2 | [A,,,A,,]6- | [A,,,A,,]4 z2 | %8
 [A,,,A,,]6- | [A,,,A,,]4 z2 | [A,,,A,,]6- | [A,,,A,,]4 z2 | [E,,B,,]6- | [E,,B,,]4 z2 | %14
 [A,,,A,,]6- | [A,,,A,,]4 z2 | =E,/ x7/2 E,2 | F,/ x7/2 F,2 | =E,/ x11/2 | x6 | x6 | x6 | x6 | x6 | %24
 x6 | x6 | x6 | x6 | x6 | x6 | x6 | x6 | x6 | x6 |[K:treble] x6 | x6 |[K:bass] x6 | x6 | x6 | %39
 x4[K:treble] x2 | x6 | x6 |[K:bass] x6 | x6 |] %44

